X:1
T:Congratulamini mihi
T:Giovanni Girolamo Kapsperger
T:Source : Libro primo di mottetti passeggiati a una voce---Roma---1612. Racolta del Sig.Francesco de Nobile Editor : André Vierendeels (30/10/15).
T:Notes : Original clefs : C1, F4 Editorial accidentals above the staff
T:Congratulamini mihi
C:Giovanni Girolamo Kapsperger
%%score 1 2
L:1/8
Q:1/4=80
M:4/4
K:F
V:1 treble nm="Soprano" snm="S"
V:2 bass nm="BC" snm="BC"
V:1
 F8 | A6 A2 | c6 c2 | c4 B4 | A8 | z f/e/ d/c/B/A/ B/F/G/A/ B2 | %6
w: Con-|gra- tu-|la- mi-|ni mi-|hi|o- * * * * * * * * * *|
 F/G/A/B/ c/d/4e/4f c/d/4e/4f c/d/e/f/4g/4 | f/e/d/c/4B/4 AF/G/ A/B/c/d/ e/4f/4B/c | %8
w: ||
 d/c/d/c/ d/4c/4c/4c/4c/4c/4c/4B/4 c4 | B8 | A4 =B4 | c3 c c4 |"^b" B4 cABc | d3 d d4 | %14
w: |mnes|qui di-|li- gi- tis,|qui di- * * *|li- gi- tis|
 c>d B>c A>B G>A | F>G A>B G>A F>G | E>F G>D E>F G/c/d/e/ | %17
w: Do- * * * * * * *|||
 f/4e/4f/4e/4e/4e/4e/4e/4 d/e/f e/e/d/e/ fA/=B/ | c/=B/c/B/ c/B/B/B/ A/B/c/B/4B/4 A/B/c/F/ | %19
w: ||
 G6 F2 | F8 | c4 c2 c2 | c4 d4 | _e6 e2 | d6 B/c/d/4e/4f/4g/4 | f3 g f4- | %26
w: * mi-|num,|qui- a cum|es- sem|par- vu-|la pla- * * * * *|* cu- i,-|
 f2 F/G/A/4B/4c/4d/4 c3 c | A4 G/A/B/c/ d/e/f/g/ | G/A/4B/4A>BB A3 A | G6 =BB | =B4 B2 G2 | %31
w: _ pla- * * * * * * cu-|i Al- * * * * * * *|* * * * * * tis- si-|mo: et de|me- i vi-|
 A=B c/B/c/A/ B c2 B | c4 c4- | c2 c2 A4 | z4 f4- | f2 f2 d4 | f4 f2 _e2 | d4 c2 B2 | c6 c2 | %39
w: sce- * * * * * * * ri-|bus ge-|* nu- i,|ge-|* nu- i,|ge- nu- i|De- um et|ho- mi-|
 B6 F/G/A/B/ | c3 c A4- | A2 F/G/A/B/ c3 c | B2 A4 GF | G6 G2 | F8 | %45
w: nem ge- * * *|* nu- i,|_ ge- * * * * nu-|i De- um et|ho- mi-|nem,|
 B2 B/c/d/_e/ d/c/B/A/ G/A/B/G/ | A/B/c/d/ c/B/A/G/ F/E/D/E/ F/G/A/B/ | %47
w: et ho- * * * * * * * * * * *||
 c/B/c/A/ B/G/A/F/ G/A/B/c/ G/A/B/c/ |"^b" d/e/f/g/ G/A/B/c/4d/4 F2 G/A/G/4G/4G/4F/4 | G6 G2 | %50
w: ||* mi-|
 F6 F2 | G2 A2 B2 c2 | d2 e2 f2 _e2 | c4 c4 | d8 | c8 | B6 d/c/4c/4c/4c/4B/ | %57
w: nem, Al-|le- lu- ia, Al-|le- lu- ia, _|_ Al-|le-|lu-|ia, Al- * * * * *|
 A2 c/B/4B/4B/4B/4A/ G2 B/A/4A/4A/4A/4G/ | F2 F/G/A/B/ c/d/c/B/ A/G/F | D/E/F/G/ A/B/c/F/ G4 | %60
w: le- * * * * * * lu- * * * * * *|ia, Al- * * * * * * * * * *|* * * * * * * le- lu-|
 !fermata!F8 |] %61
w: ia.|
V:2
 F,8- | F,8 | F,8- | F,4 G,4 | D,8 | D,8- | D,8 | D,8 | F,8 | B,,4 D,2 E,2 | F,4 D,4 | A,,8 | %12
 B,,4 A,,4 | G,,8 | C,8 | D,8 | C,8 | A,,8 | A,,8 |"^-natural" C,8 | F,,8 | F,8 | _E,4 D,4 | C,8 | %24
 B,,8 | B,,8 | F,8 | F,4 G,4 | G,4 D,4 | G,,8 | G,6 E,2 | F,4 G,4 | C,8- | C,4 F,4 | F,4 D,4- | %35
 D,4 B,,4 | B,,4 A,,4 | B,,4 A,,2 G,,2 | F,,8 | B,,4 F,4 | F,8- | F,8 | G,2 D,2 A,,4 | C,8 | F,,8 | %45
 G,,8 | F,,8 | F,4 _E,4- | E,2 D,2 A,,4 | C,8 | F,,8 | C,2 F,,2 G,,2 A,,2 | B,,2 C,2 D,2 _E,2 | %53
 F,2 G,2 A,2 F,2 | B,,2 C,2 D,2 B,,2 | F,,2 G,,2 A,,2 F,,2 | G,,8 | A,,4 B,,4 | F,,8 | %59
 F,3 A,, C,4 | !fermata!F,,8 |] %61

